.local/share/icons/Gruvbox-Plus-Dark/panel/16/pushbullet-indicator-sync1-light.svg

<svg xmlns="http://www.w3.org/2000/svg" width="16" height="16" version="1.1">
 <defs>
  <style id="current-color-scheme" type="text/css">
   .ColorScheme-Text { color:#ebdbb2; } .ColorScheme-Highlight { color:#458588; }
  </style>
 </defs>
 <path style="fill:currentColor" class="ColorScheme-Text" d="M -2e-4,2 V 14 H 1.9998 V 2 Z M 3.9998,2 V 14 L 8.252,13.967 C 11.183,13.934 11.46,13.895 12.699,13.291 15.401,11.975 16.679,8.786 15.64,5.9472 14.954,4.0721 13.392,2.6844 11.403,2.1795 10.778,2.0209 10.383,1.9998 7.955,1.9998 H 3.9993 Z M 10.264,3.918 C 11.061,3.956 11.944,4.288 12.828,5.1719 13.876,6.2203 14.14,7.273 14.066,8.178 L 14.948,7.293 15.655,8 14.241,9.414 13.534,10.121 12.827,9.414 11.413,8 12.12,7.293 13.048,8.221 C 13.134,7.519 12.948,6.706 12.12,5.8787 9.999,3.7574 7.878,5.8787 7.878,5.8787 L 7.171,5.1714 C 7.171,5.1714 8.508,3.8339 10.263,3.9175 Z M 6.4641,5.8789 7.172,6.5859 8.586,8 7.878,8.707 6.9504,7.779 C 6.8646,8.481 7.051,9.294 7.878,10.121 9.999,12.242 12.12,10.121 12.12,10.121 L 12.827,10.828 C 12.827,10.828 10,13.656 7.171,10.828 6.1225,9.78 5.8587,8.727 5.9325,7.822 L 5.0497,8.707 4.3427,8 5.7568,6.5857 6.4638,5.8787 Z"/>
</svg>

<svg width="16" height="16" version="1.1" xmlns="http://www.w3.org/2000/svg">
  <defs>
    <style id="current-color-scheme" type="text/css">.ColorScheme-Text { color:#ebdbb2; } .ColorScheme-Highlight { color:#458588; } .ColorScheme-NeutralText { color:#fe8019; } .ColorScheme-PositiveText { color:#689d6a; } .ColorScheme-NegativeText { color:#fb4934; }</style>
  </defs>
  <path class="ColorScheme-Text" d="m-2e-4 2v12h2v-12zm4 0v12l4.252-0.033c2.931-0.033 3.208-0.072 4.447-0.676 2.702-1.316 3.98-4.505 2.941-7.344-0.686-1.875-2.248-3.263-4.237-3.768-0.625-0.1586-1.02-0.1797-3.448-0.1797h-3.956zm6.264 1.918c0.797 0.038 1.68 0.37 2.564 1.254 1.048 1.048 1.312 2.101 1.238 3.006l0.882-0.885 0.707 0.707-2.121 2.121-2.121-2.121 0.707-0.707 0.928 0.928c0.086-0.702-0.1-1.515-0.928-2.342-2.121-2.121-4.242 0-4.242 0l-0.707-0.7073s1.337-1.338 3.092-1.254zm-3.8 1.961 0.7079 0.707 1.414 1.414-0.708 0.707-0.9276-0.928c-0.0858 0.702 0.1006 1.515 0.9276 2.342 2.121 2.121 4.242 0 4.242 0l0.707 0.707s-2.827 2.828-5.656 0c-1.048-1.048-1.312-2.101-1.238-3.006l-0.8828 0.885-0.707-0.707 1.414-1.414 0.707-0.707z" fill="currentColor"/>
</svg>
